**harmony	**harte	**kern	**silbe	**rhyme	**timestamp	**phrase
*M4/4	*M4/4	*ICvox	*	*	*	*
*	*	*VRlead	*	*	*	*
*	*	*Hstimme	*	*	*	*
*E:	*E:	*E:	*	*	*	*
*	*	*M4/4	*	*	*	*
*	*	*clefG2	*	*	*	*
1r;	1r	r;	.	.	0	.
=1	=1	=1	=1	=1	=1	=1
*>Letter>A	*>Letter>A	*>Letter>A	*>Letter>A	*>Letter>A	*>Letter>A	*>Letter>A
*>Label>Intro	*>Label>Intro	*>Label>Intro	*>Label>Intro	*>Label>Intro	*>Label>Intro	*>Label>Intro
1EM	E:maj	1r	.	.	0.395	newline
=2	=2	=2	=2	=2	=2	=2
1EM	E:maj	1r	.	.	2.166	.
=3	=3	=3	=3	=3	=3	=3
1EM	E:maj	1r	.	.	3.937	.
=4	=4	=4	=4	=4	=4	=4
1EM	E:maj	1r	.	.	5.708	.
=5	=5	=5	=5	=5	=5	=5
*>Letter>B	*>Letter>B	*>Letter>B	*>Letter>B	*>Letter>B	*>Letter>B	*>Letter>B
*>Label>Chorus	*>Label>Chorus	*>Label>Chorus	*>Label>Chorus	*>Label>Chorus	*>Label>Chorus	*>Label>Chorus
1EM	E:maj	4r	.	.	7.479	newline
.	.	16B	Lit-	.	.	.
.	.	16B	-tle	.	.	.
.	.	[8c#	sis-	.	.	.
.	.	8c#]	_	.	.	.
.	.	8B	-ter	.	.	.
.	.	8G	don't	.	.	.
.	.	8E	you	.	.	.
=6	=6	=6	=6	=6	=6	=6
1EM	E:maj	1r	.	.	9.222	.
=7	=7	=7	=7	=7	=7	=7
1EM	E:maj	4r	.	.	10.965	.
.	.	16B	Lit-	.	.	.
.	.	16B	-tle	.	.	.
.	.	[8c#	sis-	.	.	.
.	.	8c#]	_	.	.	.
.	.	8B	-ter	.	.	.
.	.	8G	don't	.	.	.
.	.	8E	you	.	.	.
=8	=8	=8	=8	=8	=8	=8
1EM	E:maj	1r	.	.	12.708	.
=9	=9	=9	=9	=9	=9	=9
1EM	E:maj	4r	.	.	14.45	newline
.	.	16B	Lit-	.	.	.
.	.	16B	-tle	.	.	.
.	.	[8c#	sis-	.	.	.
.	.	8c#]	_	.	.	.
.	.	8B	-ter	.	.	.
.	.	8.G	don't	.	.	.
.	.	16E	you	.	.	.
=10	=10	=10	=10	=10	=10	=10
1AM	A:maj	8G	kiss	.	16.184	.
.	.	8E	me	.	.	.
.	.	8E	once	.	.	.
.	.	8C#	or	.	.	.
.	.	4E	twice	A	.	.
.	.	8r	.	.	.	.
.	.	8E	Then	.	.	.
=11	=11	=11	=11	=11	=11	=11
1AM	A:maj	8G	say	.	17.919	.
.	.	8E	it's	.	.	.
.	.	8E	ve-	.	.	.
.	.	8C#	-ry	.	.	.
.	.	8E	nice	A	.	.
.	.	8E	and	.	.	.
.	.	8F#	then	.	.	.
.	.	8E	you	.	.	.
=12	=12	=12	=12	=12	=12	=12
1EM	E:maj	8B	run	B	19.653	.
.	.	[8G#	_	.	.	.
.	.	4G#]	_	.	.	.
.	.	2r	.	.	.	.
=13	=13	=13	=13	=13	=13	=13
1EM	E:maj	1r	.	.	21.387	.
=14	=14	=14	=14	=14	=14	=14
1BM	B:maj	4r	.	.	23.121	newline
.	.	16F#	Lit-	.	.	.
.	.	16F#	-tle	.	.	.
.	.	[8F#	sis-	.	.	.
.	.	8F#]	_	.	.	.
.	.	8F#	-ter	.	.	.
.	.	8F#	don't	.	.	.
.	.	8F#	you	.	.	.
=15	=15	=15	=15	=15	=15	=15
2CM	C:maj	4G	do	.	24.854	.
.	.	8G	what	.	.	.
.	.	8G	your	.	.	.
2BM	B:maj	4F#	big	.	25.72	.
.	.	8F#	sis-	.	.	.
.	.	8E	-ter	.	.	.
=16	=16	=16	=16	=16	=16	=16
1EM	E:maj	4E	done-	B	26.586	.
.	.	4r	.	.	.	.
.	.	2r	.	.	.	.
=17	=17	=17	=17	=17	=17	=17
1EM	E:maj	2r	.	.	28.319	.
.	.	8r	.	.	.	.
.	.	[8d	-Well,	.	.	.
.	.	8d]	_	.	.	.
.	.	8d	I	.	.	.
=18	=18	=18	=18	=18	=18	=18
*>Letter>C	*>Letter>C	*>Letter>C	*>Letter>C	*>Letter>C	*>Letter>C	*>Letter>C
*>Label>Verse	*>Label>Verse	*>Label>Verse	*>Label>Verse	*>Label>Verse	*>Label>Verse	*>Label>Verse
1EM	E:maj	4d	da-	.	30.052	newline
.	.	4c#	-ted	.	.	.
.	.	4B	your	.	.	.
.	.	8A	big	.	.	.
.	.	[8B	sis-	.	.	.
=19	=19	=19	=19	=19	=19	=19
1EM	E:maj	8B]	_	.	31.77	.
.	.	8G	-ter	.	.	.
.	.	4r	.	.	.	.
.	.	8r	.	.	.	.
.	.	[8d	And	.	.	.
.	.	8d]	_	.	.	.
.	.	8d	I	.	.	.
=20	=20	=20	=20	=20	=20	=20
1EM	E:maj	4d	took	.	33.488	.
.	.	4c#	her	.	.	.
.	.	4B	to	.	.	.
.	.	8A	a	.	.	.
.	.	[8G	show	C	.	.
=21	=21	=21	=21	=21	=21	=21
1EM	E:maj	4G]	_	.	35.206	.
.	.	4r	.	.	.	.
.	.	4r	.	.	.	.
.	.	8r	.	.	.	.
.	.	8B	I	.	.	.
=22	=22	=22	=22	=22	=22	=22
1EM	E:maj	4d	went	.	36.923	newline
.	.	8c#	for	.	.	.
.	.	8B	some	.	.	.
.	.	8d	can-	(D	.	.
.	.	8d	-dy	d)	.	.
.	.	8r	.	.	.	.
.	.	8B	A-	.	.	.
=23	=23	=23	=23	=23	=23	=23
1EM	E:maj	8d	-long	.	38.687	.
.	.	4d	came	.	.	.
.	.	8B	Jim	.	.	.
.	.	8d	Dan-	(D	.	.
.	.	8d	-dy	d)	.	.
.	.	8c#	And	(D	.	.
.	.	8B	they	d)	.	.
=24	=24	=24	=24	=24	=24	=24
1N	N	4e	snuck	.	40.452	.
.	.	4B	right	.	.	.
.	.	4A	out	.	.	.
.	.	8G	the	.	.	.
.	.	[8E	door	C	.	.
=25	=25	=25	=25	=25	=25	=25
1EM	E:maj	2E]	_	.	42.216	.
.	.	2r	.	.	.	.
=26	=26	=26	=26	=26	=26	=26
1N	N	4r	.	.	43.98	.
.	.	16B	Lit-	.	.	.
.	.	16B	-tle	.	.	.
.	.	[8c#	sis-	.	.	.
.	.	8c#]	_	.	.	.
.	.	8B	-ter	.	.	.
.	.	8G	don't	.	.	.
.	.	8E	you	.	.	.
=27	=27	=27	=27	=27	=27	=27
*>Letter>B2	*>Letter>B2	*>Letter>B2	*>Letter>B2	*>Letter>B2	*>Letter>B2	*>Letter>B2
*>Label>Chorus	*>Label>Chorus	*>Label>Chorus	*>Label>Chorus	*>Label>Chorus	*>Label>Chorus	*>Label>Chorus
1EM	E:maj	1r	.	.	45.744	->newline
=28	=28	=28	=28	=28	=28	=28
1EM	E:maj	4r	.	.	47.467	.
.	.	16B	Lit-	.	.	.
.	.	16B	-tle	.	.	.
.	.	[8c#	sis-	.	.	.
.	.	8c#]	_	.	.	.
.	.	8B	-ter	.	.	.
.	.	8G	don't	.	.	.
.	.	8E	you	.	.	.
=29	=29	=29	=29	=29	=29	=29
1EM	E:maj	1r	.	.	49.19	.
=30	=30	=30	=30	=30	=30	=30
1EM	E:maj	4r	.	.	50.913	.
.	.	16B	Lit-	.	.	.
.	.	16B	-tle	.	.	.
.	.	[8c#	sis-	.	.	.
.	.	8c#]	_	.	.	.
.	.	8B	-ter	.	.	.
.	.	8.G	don't	.	.	.
.	.	16E	you	.	.	.
=31	=31	=31	=31	=31	=31	=31
1AM	A:maj	8G	kiss	.	52.636	newline
.	.	8E	me	.	.	.
.	.	8E	once	.	.	.
.	.	8C#	or	.	.	.
.	.	4E	twice	A	.	.
.	.	8r	.	.	.	.
.	.	8E	Then	.	.	.
=32	=32	=32	=32	=32	=32	=32
1AM	A:maj	8G	say	.	54.359	.
.	.	8E	it's	.	.	.
.	.	8E	ve-	.	.	.
.	.	8C#	-ry	.	.	.
.	.	8E	nice	A	.	.
.	.	8E	and	.	.	.
.	.	8F#	then	.	.	.
.	.	8E	you	.	.	.
=33	=33	=33	=33	=33	=33	=33
1EM	E:maj	8B	run	B	56.082	.
.	.	[8G#	_	.	.	.
.	.	4G#]	_	.	.	.
.	.	2r	.	.	.	.
=34	=34	=34	=34	=34	=34	=34
1EM	E:maj	1r	.	.	57.804	.
=35	=35	=35	=35	=35	=35	=35
1BM	B:maj	4r	.	.	59.527	newline
.	.	16F#	Lit-	.	.	.
.	.	16F#	-tle	.	.	.
.	.	[8F#	sis-	.	.	.
.	.	8F#]	_	.	.	.
.	.	8F#	-ter	.	.	.
.	.	8F#	don't	.	.	.
.	.	8F#	you	.	.	.
=36	=36	=36	=36	=36	=36	=36
2CM	C:maj	4G	do	.	61.242	.
.	.	8G	what	.	.	.
.	.	8G	your	.	.	.
2BM	B:maj	4F#	big	.	62.099	.
.	.	8F#	sis-	.	.	.
.	.	8E	-ter	.	.	.
=37	=37	=37	=37	=37	=37	=37
1EM	E:maj	4E	done-	B	62.957	.
.	.	4r	.	.	.	.
.	.	2r	.	.	.	.
=38	=38	=38	=38	=38	=38	=38
1EM	E:maj	2r	.	.	64.671	.
.	.	8r	.	.	.	.
.	.	[8d	-Ev'-	.	.	.
.	.	8d]	_	.	.	.
.	.	8d	-ry	.	.	.
=39	=39	=39	=39	=39	=39	=39
*>Letter>C	*>Letter>C	*>Letter>C	*>Letter>C	*>Letter>C	*>Letter>C	*>Letter>C
*>Label>Verse	*>Label>Verse	*>Label>Verse	*>Label>Verse	*>Label>Verse	*>Label>Verse	*>Label>Verse
1EM	E:maj	4d	time	.	66.386	newline
.	.	4c#	I	.	.	.
.	.	4B	see	.	.	.
.	.	8A	your	.	.	.
.	.	[8B	sis-	.	.	.
=40	=40	=40	=40	=40	=40	=40
1EM	E:maj	8B]	_	.	68.086	.
.	.	8G	-ter	.	.	.
.	.	4r	.	.	.	.
.	.	8r	.	.	.	.
.	.	[8d	Well	.	.	.
.	.	8d]	_	.	.	.
.	.	8d	she's	.	.	.
=41	=41	=41	=41	=41	=41	=41
1EM	E:maj	4d	got	.	69.787	.
.	.	4c#	some-	.	.	.
.	.	4B	-bo-	.	.	.
.	.	8A	-dy	.	.	.
.	.	[8G	new	E	.	.
=42	=42	=42	=42	=42	=42	=42
1EM	E:maj	4G]	_	.	71.487	.
.	.	4r	.	.	.	.
.	.	4r	.	.	.	.
.	.	8r	.	.	.	.
.	.	8B	She's	.	.	.
=43	=43	=43	=43	=43	=43	=43
1EM	E:maj	8d	mean	.	73.187	newline
.	.	4d	and	.	.	.
.	.	8B	she's	.	.	.
.	.	8d	e-	(F	.	.
.	.	8d	-vil	f)	.	.
.	.	8c#	like	.	.	.
.	.	8B	that	.	.	.
=44	=44	=44	=44	=44	=44	=44
1EM	E:maj	16d	lit-	.	74.944	.
.	.	16d	-tle	.	.	.
.	.	[8c#	old	G	.	.
.	.	8c#]	_	.	.	.
.	.	8B	Boll	G	.	.
.	.	8d	Wee-	(F	.	.
.	.	8d	-vil	f)	.	.
.	.	8c#	guess	.	.	.
.	.	8B	I'll	.	.	.
=45	=45	=45	=45	=45	=45	=45
1N	N	4e	try	.	76.701	.
.	.	4B	my	.	.	.
.	.	4A	luck	.	.	.
.	.	8G	with	.	.	.
.	.	[8E	you	E	.	.
=46	=46	=46	=46	=46	=46	=46
1EM	E:maj	2.E]	_	.	78.458	.
.	.	4r	.	.	.	.
=47	=47	=47	=47	=47	=47	=47
1N	N	4r	.	.	80.215	.
.	.	16B	Lit-	.	.	.
.	.	16B	-tle	.	.	.
.	.	[8c#	sis-	.	.	.
.	.	8c#]	_	.	.	.
.	.	8B	-ter	.	.	.
.	.	8G	don't	.	.	.
.	.	8E	you	.	.	.
=48	=48	=48	=48	=48	=48	=48
*>Letter>B2	*>Letter>B2	*>Letter>B2	*>Letter>B2	*>Letter>B2	*>Letter>B2	*>Letter>B2
*>Label>Chorus	*>Label>Chorus	*>Label>Chorus	*>Label>Chorus	*>Label>Chorus	*>Label>Chorus	*>Label>Chorus
1EM	E:maj	1r	.	.	81.972	->newline
=49	=49	=49	=49	=49	=49	=49
1EM	E:maj	4r	.	.	83.701	.
.	.	16B	Lit-	.	.	.
.	.	16B	-tle	.	.	.
.	.	[8c#	sis-	.	.	.
.	.	8c#]	_	.	.	.
.	.	8B	-ter	.	.	.
.	.	8G	don't	.	.	.
.	.	8E	you	.	.	.
=50	=50	=50	=50	=50	=50	=50
1EM	E:maj	1r	.	.	85.43	.
=51	=51	=51	=51	=51	=51	=51
1EM	E:maj	4r	.	.	87.159	.
.	.	16B	Lit-	.	.	.
.	.	16B	-tle	.	.	.
.	.	[8c#	sis-	.	.	.
.	.	8c#]	_	.	.	.
.	.	8B	-ter	.	.	.
.	.	8.G	don't	.	.	.
.	.	16E	you	.	.	.
=52	=52	=52	=52	=52	=52	=52
1AM	A:maj	8G	kiss	.	88.888	newline
.	.	8E	me	.	.	.
.	.	8E	once	.	.	.
.	.	8C#	or	.	.	.
.	.	4E	twice	A	.	.
.	.	8r	.	.	.	.
.	.	8E	Then	.	.	.
=53	=53	=53	=53	=53	=53	=53
1AM	A:maj	8G	say	.	90.607	.
.	.	8E	it's	.	.	.
.	.	8E	ve-	.	.	.
.	.	8C#	-ry	.	.	.
.	.	8E	nice	A	.	.
.	.	8E	and	.	.	.
.	.	8F#	then	.	.	.
.	.	8E	you	.	.	.
=54	=54	=54	=54	=54	=54	=54
1EM	E:maj	8B	run	B	92.325	.
.	.	[8G#	_	.	.	.
.	.	4G#]	_	.	.	.
.	.	2r	.	.	.	.
=55	=55	=55	=55	=55	=55	=55
1EM	E:maj	1r	.	.	94.044	.
=56	=56	=56	=56	=56	=56	=56
1BM	B:maj	4r	.	.	95.762	newline
.	.	16F#	Lit-	.	.	.
.	.	16F#	-tle	.	.	.
.	.	[8F#	sis-	.	.	.
.	.	8F#]	_	.	.	.
.	.	8F#	-ter	.	.	.
.	.	8F#	don't	.	.	.
.	.	8F#	you	.	.	.
=57	=57	=57	=57	=57	=57	=57
2CM	C:maj	4G	do	.	97.473	.
.	.	8G	what	.	.	.
.	.	8G	your	.	.	.
2BM	B:maj	4F#	big	.	98.329	.
.	.	8F#	sis-	.	.	.
.	.	8E	-ter	.	.	.
=58	=58	=58	=58	=58	=58	=58
1EM	E:maj	4E	done-	B	99.184	.
.	.	4r	.	.	.	.
.	.	2r	.	.	.	.
=59	=59	=59	=59	=59	=59	=59
1EM	E:maj	2r	.	.	100.895	.
.	.	8r	.	.	.	.
.	.	[8d	-Well,	.	.	.
.	.	8d]	_	.	.	.
.	.	8d	I	.	.	.
=60	=60	=60	=60	=60	=60	=60
*>Letter>C	*>Letter>C	*>Letter>C	*>Letter>C	*>Letter>C	*>Letter>C	*>Letter>C
*>Label>Verse	*>Label>Verse	*>Label>Verse	*>Label>Verse	*>Label>Verse	*>Label>Verse	*>Label>Verse
1EM	E:maj	4d	used	.	102.605	newline
.	.	4c#	to	.	.	.
.	.	4B	pull	.	.	.
.	.	8A	your	.	.	.
.	.	[8B	pig-	.	.	.
=61	=61	=61	=61	=61	=61	=61
1EM	E:maj	8B]	_	.	104.311	.
.	.	8G	-tails	.	.	.
.	.	4r	.	.	.	.
.	.	4r	.	.	.	.
.	.	8r	.	.	.	.
.	.	8B	And	.	.	.
=62	=62	=62	=62	=62	=62	=62
1EM	E:maj	4d	pinch	.	106.016	.
.	.	4c#	your	.	.	.
.	.	4B	turned-	.	.	.
.	.	8A	-up	.	.	.
.	.	[8G	nose	H	.	.
=63	=63	=63	=63	=63	=63	=63
1EM	E:maj	2G]	_	.	107.721	.
.	.	4r	.	.	.	.
.	.	8r	.	.	.	.
.	.	8B	But	.	.	.
=64	=64	=64	=64	=64	=64	=64
1EM	E:maj	4d	you	.	109.426	newline
.	.	8c#	been	.	.	.
.	.	8B	a	.	.	.
.	.	8d	gro-	(I	.	.
.	.	8d	-win'	i)	.	.
.	.	8r	.	.	.	.
.	.	8B	And	.	.	.
=65	=65	=65	=65	=65	=65	=65
1EM	E:maj	16d	ba-	.	111.193	.
.	.	16d	-by,	.	.	.
.	.	8c#	it's	.	.	.
.	.	8r	.	.	.	.
.	.	8B	been	.	.	.
.	.	8d	sho-	(I	.	.
.	.	8d	-win'	i)	.	.
.	.	8c#	From	.	.	.
.	.	8B	your	.	.	.
=66	=66	=66	=66	=66	=66	=66
1N	N	4e	head	.	112.96	.
.	.	4B	down	.	.	.
.	.	4A	to	.	.	.
.	.	8G	your	.	.	.
.	.	[8E	toes	H	.	.
=67	=67	=67	=67	=67	=67	=67
1EM	E:maj	2.E]	_	.	114.726	.
.	.	4r	.	.	.	.
=68	=68	=68	=68	=68	=68	=68
1N	N	4r	.	.	116.493	.
.	.	16B	Lit-	.	.	.
.	.	16B	-tle	.	.	.
.	.	[8c#	sis-	.	.	.
.	.	8c#]	_	.	.	.
.	.	8B	-ter	.	.	.
.	.	8G	don't	.	.	.
.	.	8E	you	.	.	.
=69	=69	=69	=69	=69	=69	=69
1EM	E:maj	1r	.	.	118.26	->newline
=70	=70	=70	=70	=70	=70	=70
1EM	E:maj	4r	.	.	119.984	.
.	.	16B	Lit-	.	.	.
.	.	16B	-tle	.	.	.
.	.	[8c#	sis-	.	.	.
.	.	8c#]	_	.	.	.
.	.	8B	-ter	.	.	.
.	.	8G	don't	.	.	.
.	.	8E	you	.	.	.
=71	=71	=71	=71	=71	=71	=71
1EM	E:maj	1r	.	.	121.708	.
=72	=72	=72	=72	=72	=72	=72
1EM	E:maj	4r	.	.	123.433	.
.	.	16B	Lit-	.	.	.
.	.	16B	-tle	.	.	.
.	.	[8c#	sis-	.	.	.
.	.	8c#]	_	.	.	.
.	.	8B	-ter	.	.	.
.	.	8.G	don't	.	.	.
.	.	16E	you	.	.	.
=73	=73	=73	=73	=73	=73	=73
1AM	A:maj	8G	kiss	.	125.157	newline
.	.	8E	me	.	.	.
.	.	8E	once	.	.	.
.	.	8C#	or	.	.	.
.	.	4E	twice	A	.	.
.	.	8r	.	.	.	.
.	.	8E	Then	.	.	.
=74	=74	=74	=74	=74	=74	=74
1AM	A:maj	8G	say	.	126.864	.
.	.	8E	it's	.	.	.
.	.	8E	ve-	.	.	.
.	.	8C#	-ry	.	.	.
.	.	8E	nice	A	.	.
.	.	8E	and	.	.	.
.	.	8F#	then	.	.	.
.	.	8E	you	.	.	.
=75	=75	=75	=75	=75	=75	=75
1EM	E:maj	8B	run	B	128.571	.
.	.	[8G#	_	.	.	.
.	.	4G#]	_	.	.	.
.	.	2r	.	.	.	.
=76	=76	=76	=76	=76	=76	=76
1EM	E:maj	1r	.	.	130.278	.
=77	=77	=77	=77	=77	=77	=77
1BM	B:maj	4r	.	.	131.985	newline
.	.	16F#	Lit-	.	.	.
.	.	16F#	-tle	.	.	.
.	.	[8F#	sis-	.	.	.
.	.	8F#]	_	.	.	.
.	.	8F#	-ter	.	.	.
.	.	8F#	don't	.	.	.
.	.	8F#	you	.	.	.
=78	=78	=78	=78	=78	=78	=78
2CM	C:maj	4G	do	.	133.688	.
.	.	8G	what	.	.	.
.	.	8G	your	.	.	.
2BM	B:maj	4F#	big	.	134.539	.
.	.	8F#	sis-	.	.	.
.	.	8E	-ter	.	.	.
=79	=79	=79	=79	=79	=79	=79
1EM	E:maj	4E	done-	B	135.39	.
.	.	4r	.	.	.	.
.	.	2r	.	.	.	.
=80	=80	=80	=80	=80	=80	=80
1EM	E:maj	1r	.	.	137.092	.
=81	=81	=81	=81	=81	=81	=81
*>Letter>D	*>Letter>D	*>Letter>D	*>Letter>D	*>Letter>D	*>Letter>D	*>Letter>D
*>Label>Outro	*>Label>Outro	*>Label>Outro	*>Label>Outro	*>Label>Outro	*>Label>Outro	*>Label>Outro
1BM	B:maj	4r	.	.	138.794	newline
.	.	16F#	-Lit-	.	.	.
.	.	16F#	-tle	.	.	.
.	.	[8F#	sis-	.	.	.
.	.	8F#]	_	.	.	.
.	.	8F#	-ter	.	.	.
.	.	8F#	don't	.	.	.
.	.	8F#	you	.	.	.
=82	=82	=82	=82	=82	=82	=82
2CM	C:maj	4G	do	.	140.513	.
.	.	8G	what	.	.	.
.	.	8G	your	.	.	.
2BM	B:maj	4F#	big	.	141.372	.
.	.	8F#	sis-	.	.	.
.	.	8E	-ter	.	.	.
=83	=83	=83	=83	=83	=83	=83
1EM	E:maj	4E	done-	B	142.231	.
.	.	4r	.	.	.	.
.	.	2r	.	.	.	.
=84	=84	=84	=84	=84	=84	=84
1EM	E:maj	1r	.	.	143.95	.
=85	=85	=85	=85	=85	=85	=85
*>Label>>Fadeout	*>Label>>Fadeout	*>Label>>Fadeout	*>Label>>Fadeout	*>Label>>Fadeout	*>Label>>Fadeout	*>Label>>Fadeout
1BM	B:maj	4r	.	.	145.668	newline
.	.	16F#	-Lit-	.	.	.
.	.	16F#	-tle	.	.	.
.	.	[8F#	sis-	.	.	.
.	.	8F#]	_	.	.	.
.	.	8F#	-ter	.	.	.
.	.	8F#	don't	.	.	.
.	.	8F#	you	.	.	.
=86	=86	=86	=86	=86	=86	=86
2CM	C:maj	4G	do	.	146.659	.
.	.	8G	what	.	.	.
.	.	8G	your	.	.	.
2BM	B:maj	4F#	big	.	147.154	.
.	.	8F#	sis-	.	.	.
.	.	8E	-ter	.	.	.
=87	=87	=87	=87	=87	=87	=87
1EM	E:maj	4E	done-	B	147.649	.
.	.	4r	.	.	.	.
.	.	2r	.	.	.	.
=88	=88	=88	=88	=88	=88	=88
1EM	E:maj	1r	.	.	148.639	.
1r;	1r	r;	.	.	149.63	.
1r;	1r	r;	.	.	152.028	.
*-	*-	*-	*-	*-	*-	*-
!!!BillboardChartDate: 1961/10/30
!!!BillboardPeak: 5
!!!BillboardWeeksOnChart: 13
!!!COC: Elvis Presley
!!!ENC: Nathaniel Condit-Schultz
!!!EST: Awating manual error checking and editing.
!!!OTL: Little Sister
!!!RDF**chordsym: original McGill chord annotation + (implied pitch class set, with bass pitch in first position)
!!!RDF**harmony: **recip + pitch class of root + harmonic quality
!!!RDF**leadinstrument: original McGill primary instrumentation annotation
!!!RDF**phrase: newline = linebreak in original McGill transcription
!!!RDF**timestamp: McGill audio timestamp in seconds
!!!RDT: 2017/01/12/
!!!SampleActualRank: 34
!!!SampleID#: 0159
!!!SampleTargetRank: 35
!!!MBID: f986439c-311d-43dd-9a27-3721c37b94f8
